!!!COM: Robert Franz
!!!CNT: Deutscher
!!!TXO: Deutsche 
!!!OTL: Romanze
!!!OPS: Op. 35
!!!ONM: No. 4
!!!ONB: Original key: f minor
!!!LYR: Joseph von Eichendorff
!!!ENC: Brian Bice
!!!YOR: Vocal Album, G. Schirmer, Inc., 1907
!!!ODT: 1862/
!!NB: Vocal melody and text only encoded.
**kern	**silbe
*clefG2	*
*k[b-]	*
*M6/8	*
=2	=2
4r	.
8r	.
4r	.
{8A	{Und
=3	=3
8.A	wo
16d	noch
8f	kein
4e	Wan-
8d	-d'rer
=4	=4
(4c#	'gan-
8e)	|
4g}	-gen,}
{8b-	{hoch
=5	=5
4a	u2-
8a	-ber
8.dd	Ja2-
16dd	-ger
8dd	und
=6	=6
[4.g	Ross,
4g]}	|}
{8g	{die
=7	=7
8.a	Fel-
16a	-sen
8a	im
8.bn	A-
16bn	-bend-
8bn	-roth
=8	=8
(4cc#	han-
8a)	|
4e}	-gen,}
{8e	{als
=9	=9
4a	wie
8e	ein
4a	Wol-
8bn	-ken-
=10	=10
[4.cc#	-schloss.
4cc#]}	|}
8r	.
=13	=13
{4a	{Dort
24a	zwis-
24a	-chen
24a	den
8.cc	Zin-
16b-	-nen
8a	und
=14	=14
(4a	Spit-
8g)	|
4f}	-zen,}
{8f	{von
=15	=15
4g	wil-
8g	-den
8.g	Nel-
16a	-ken
8b-	um-
=16	=16
(aq	-blu2ht,
[4.cc)	|
8cc]}	|}
8r	.
{8a	{die
=17	=17
4a	scho2-
8a	-nen
(8cc	Wald-
8b-)	|
8a	-frau'n
=18	=18
(4a	sit-
8g)	|
4f}	-zen}
{8f	{und
=19	=19
8.g	sin-
16g	-gen
8g	im
(8b-	Wind'
8a)	|
8g	ihr
=20	=20
[4.a	Lied.
8a]}	|}
8r	.
8r	.
=24	=24
4r	.
8r	.
4r	.
{8a	{Der
=25	=25
4a	Ja2-
8a	-ger
8.d	schaut
16f	nach
8a	dem
=26	=26
4.dd	Schlo-
4a	-sse:
8a	die
=27	=27
4bn	dro-
8bn	-ben,
8.bn	das
16bn	ist
8bn	mein
=28	=28
[4.e	Lieb!
8e]}	|}
8r	.
{8bn	{Er
=29	=29
8.cc#	sprang
16bn	von
8a	dem
8.dd	scheu-
16a	-en-
8f	-den
=30	=30
(4b-	Ro-
8a)	|
4g	-sse
8f	und
=31	=31
4e-	Kei-
8f	-ner
4g}	weiss,}
8r	.
=32	=32
4r	.
8r	.
{4c#	{wo
8c#	er
=33	=33
[4.d	blieb.
4d]}	|}
8r	.
*-	*-
